X:1
T:Jesus Stood on the Shore
T:Jesus Stood on the Shore
T:Henry Lake Gilmour
T:Henry Lake Gilmour, 1897
T:Public Domain Courtesy of the Cyber Hymnal™
T:Public Domain Courtesy of the Cyber Hymnal™
C:Henry Lake Gilmour
Z:Public Domain
Z:Courtesy of the Cyber Hymnal™
%%score ( 1 2 ) ( 3 4 )
L:1/8
Q:1/4=100
M:4/4
K:Ab
V:1 treble 
V:2 treble 
V:3 bass 
V:4 bass 
V:1
 [CE]>[CA] | [Ec]2 [Ec]>[Ec] [Ec]2 [Fd]>[Ec] | [FB]2 [DF]2 [DF]2 [FA]2 | %3
w: 1.~Je- sus|stood on the shore, when the|morn- ing came, Ap-|
w: 2.~Je- sus|stood by the way, when the|beg- gar blind, For|
w: 3.~Je- sus|stood by the grave of the|friend He loved, And|
w: 4.~Je- sus|stand- eth to- day at the|mer- cy- seat, Our|
 [EG]>[EG] [EG]>[EA] [EB]2 [Ed]2 | [Ec]6 [CE]>[CA] | [Ec]2 [Ec]>[Ec] [Ec]2 [_Ge]2 | %6
w: pear- ing to His friends once|more; The be-|lov- èd dis- ci- ple|
w: mer- cy cried thro’ na- ture’s|night; As he|cast down his gar- ments|
w: showed His re- sur- rect- ion|power; Quick- ly|gave the com- mand, “Come|
w: ad- vo- cate with God a-|bove; Shows His|nail pierc- èd hands, and|
 [Fe]2 [Fd]2 [Fd]2 [FB]2 | [EA]>[EA] [EG]>[EA] [Ac]2 B2 | [EA]6 ||"^Refrain" [EA]>[Ac] | %10
w: knew the Lord, Who|loved him as in days of|yore.||
w: at His feet, By|faith he there re- ceived his|sight.|Je- sus|
w: forth, come forth,” Un-|loose, and let him go this|hour.||
w: plead- ing stands, Un-|chang- ing in His won- drous|love.||
 [Ae]2 [Ae]>[Ae] [Ae]2 [Ac]2 | [Ae]6 [Gc]>[GB] | [FA]2 [FA]2 [=DA]2 [Dc]>[DA] | [EB]6 E>E | %14
w: ||||
w: stands on the shore to-|day, Help- ing|strug- gling souls by the|way; On the|
w: ||||
w: ||||
 [Ec]2 [Ec]2 [Ec]2 [_Ge]>[Ge] | [Fe]2 [Fd]2 !fermata![Fd]2 [FB]2 | [EA]<[EA] [EG]>[EA] [Ac]2 B2 | %17
w: |||
w: land, or wave, Je- sus|waits to save, He|ne- ver turns a soul a-|
w: |||
w: |||
 [EA]6 |] %18
w: |
w: way.|
w: |
w: |
V:2
 x2 | x8 | x8 | x8 | x8 | x8 | x8 | x6 (GE) | x6 || x2 | x8 | x8 | x8 | x6 E>E | x8 | x8 | %16
 x6 (GE) | x6 |] %18
V:3
 [A,,A,]>[A,,A,] | [A,,A,]2 [A,,A,]>[A,,A,] [A,,A,]2 [A,,A,]>[A,,A,] | %2
w: ~ ~|~ ~ ~ ~ ~ ~|
 [D,A,]2 [D,A,]2 [D,A,]2 [D,D]2 | [E,B,]>[E,B,] [E,B,]>[E,C] [E,D]2 [E,G,]2 | %4
w: ~ ~ ~ ~|~ ~ ~ ~ ~ ~|
 [A,,A,]6 [A,,A,]>[A,,A,] | [A,,A,]2 [A,,A,]>[A,,A,] [A,,A,]2 [C,A,]2 | %6
w: ~ ~ ~|~ ~ ~ ~ ~|
 [D,A,]2 [D,A,]2 [D,A,]2 [D,D]2 | [E,C]>[E,C] [E,B,]>[E,C] [E,E]2 [E,D]2 | [A,,C]6 || [A,C]>[A,E] | %10
w: ~ ~ ~ ~|~ ~ ~ ~ ~ ~|~|~ ~|
 [A,C]2 [A,C]>[A,C] [A,C]2 [A,E]2 | [A,C]2 [A,C]2 [A,C]2 [E,E]>[E,E] | %12
w: ~ ~ ~ ~ ~|~ to- day, ~ ~|
 [F,C]2 [F,C]2 [B,,B,]2 [B,,A,]>[B,,B,] | [E,G,]2 [E,G,]>[E,G,] ([E,G,][D,B,]) [C,A,]>[B,,G,] | %14
w: ~ ~ ~ ~ ~|~ by the way; * * *|
 [A,,A,]2 A,2 A,2 [C,A,]>[C,A,] | [D,A,]2 [D,A,]2 !fermata![D,A,]2 [D,D]2 | %16
w: ||
 [E,C]<[E,C] [E,B,]>[E,C] [E,E]2 [E,D]2 | [A,,C]6 |] %18
w: ||
V:4
 x2 | x8 | x8 | x8 | x8 | x8 | x8 | x8 | x6 || x2 | x8 | x8 | x8 | x8 | x2 A,2 A,2 x2 | x8 | x8 | %17
 x6 |] %18

